modules/feathericon/icons/pinterest.svg

<?xml version="1.0" encoding="UTF-8"?>
<svg width="24px" height="24px" viewBox="0 0 24 24" version="1.1" xmlns="http://www.w3.org/2000/svg" xmlns:xlink="http://www.w3.org/1999/xlink">
    <!-- Generator: sketchtool 52.2 (67145) - http://www.bohemiancoding.com/sketch -->
    <title>pinterest</title>
    <desc>Created with sketchtool.</desc>
    <g id="brand" stroke="none" stroke-width="1" fill="none" fill-rule="evenodd">
        <g id="pinterest" fill="#000000">
            <path d="M11.9996934,2 C6.47687073,2 2,6.47687073 2,11.9996934 C2,16.2362282 4.63572545,19.854143 8.35541522,21.3114865 C8.26835474,20.5199718 8.18926458,19.3072561 8.39036204,18.4427823 C8.57184023,17.6629165 9.56261304,13.4723644 9.56261304,13.4723644 C9.56261304,13.4723644 9.26403237,12.8733638 9.26403237,11.9880445 C9.26403237,10.5969161 10.0696484,9.55954753 11.0732963,9.55954753 C11.9261212,9.55954753 12.3381257,10.199626 12.3381257,10.9678428 C12.3381257,11.8255725 11.792465,13.1081818 11.5104381,14.2975997 C11.2743938,15.2926642 12.0095031,16.1044113 12.9910794,16.1044113 C14.768462,16.1044113 16.1344533,14.2301585 16.1344533,11.5251525 C16.1344533,9.13098924 14.4140891,7.45660771 11.9573894,7.45660771 C9.11259618,7.45660771 7.44189326,9.59081573 7.44189326,11.7967567 C7.44189326,12.6557126 7.77296833,13.577818 8.18619907,14.0781092 C8.26835474,14.1774317 8.28000368,14.2644922 8.2560927,14.3650409 C8.18006805,14.6814016 8.01146501,15.3601055 7.9777444,15.4998927 C7.93421416,15.681984 7.83305233,15.7212225 7.64360381,15.6329358 C6.39471506,15.0517152 5.61362313,13.2258974 5.61362313,11.7587444 C5.61362313,8.60433463 7.90539836,5.70804083 12.2210233,5.70804083 C15.6899543,5.70804083 18.3857638,8.18006805 18.3857638,11.4834616 C18.3857638,14.9297079 16.2129303,17.7027682 13.1964685,17.7027682 C12.183624,17.7027682 11.2308636,17.1767266 10.9046933,16.5544281 C10.9046933,16.5544281 10.4031759,18.4642408 10.2817817,18.9320376 C10.0561601,19.8001901 9.44673676,20.8896723 9.03902394,21.5536618 C9.97461758,21.8430459 10.969069,21.9993869 11.9996934,21.9993869 C17.5225162,21.9993869 22,17.5219031 22,11.9996934 C22,6.47687073 17.5225162,2 11.9996934,2" id="Shape"></path>
        </g>
    </g>
</svg>

<svg width="24" height="24" viewBox="0 0 24 24" xmlns="http://www.w3.org/2000/svg"><path d="M12 2C6.477 2 2 6.477 2 12c0 4.236 2.636 7.854 6.355 9.311-.087-.791-.166-2.004.035-2.868.182-.78 1.173-4.97 1.173-4.97s-.299-.6-.299-1.485c0-1.391.806-2.428 1.81-2.428.852 0 1.264.64 1.264 1.408 0 .858-.546 2.14-.828 3.33-.236.995.5 1.806 1.481 1.806 1.777 0 3.143-1.874 3.143-4.579 0-2.394-1.72-4.068-4.177-4.068-2.844 0-4.515 2.134-4.515 4.34 0 .859.331 1.78.744 2.281a.3.3 0 0 1 .07.287c-.076.316-.245.995-.278 1.135-.044.182-.145.221-.334.133-1.25-.581-2.03-2.407-2.03-3.874 0-3.155 2.291-6.051 6.607-6.051 3.469 0 6.165 2.472 6.165 5.775 0 3.447-2.173 6.22-5.19 6.22-1.012 0-1.965-.526-2.291-1.149 0 0-.502 1.91-.623 2.378-.226.868-.835 1.958-1.243 2.622.936.289 1.93.445 2.96.445C17.524 22 22 17.522 22 12 22 6.478 17.523 2 12 2" fill="#000" fill-rule="evenodd"/></svg>
